icons/qutim-default/scalable/actions/view-user-offline-kopete.svg

<?xml version="1.0" encoding="UTF-8" standalone="no"?>
<!-- Generator: Adobe Illustrator 15.0.2, SVG Export Plug-In . SVG Version: 6.00 Build 0)  -->

<svg
   xmlns:dc="http://purl.org/dc/elements/1.1/"
   xmlns:cc="http://creativecommons.org/ns#"
   xmlns:rdf="http://www.w3.org/1999/02/22-rdf-syntax-ns#"
   xmlns:svg="http://www.w3.org/2000/svg"
   xmlns="http://www.w3.org/2000/svg"
   xmlns:sodipodi="http://sodipodi.sourceforge.net/DTD/sodipodi-0.dtd"
   xmlns:inkscape="http://www.inkscape.org/namespaces/inkscape"
   version="1.1"
   id="Layer_1"
   x="0px"
   y="0px"
   width="16"
   height="16"
   viewBox="0 0 15.999999 16"
   enable-background="new 0 0 595.28 841.89"
   xml:space="preserve"
   inkscape:version="0.48.3.1 r9886"
   sodipodi:docname="view-user-offline-kopete.svg"
   inkscape:export-filename="D:\Hobby\QutIM\Images\q_outmsgok2.png"
   inkscape:export-xdpi="90"
   inkscape:export-ydpi="90"><metadata
   id="metadata33"><rdf:RDF><cc:Work
       rdf:about=""><dc:format>image/svg+xml</dc:format><dc:type
         rdf:resource="http://purl.org/dc/dcmitype/StillImage" /><dc:title /></cc:Work></rdf:RDF></metadata><defs
   id="defs31" /><sodipodi:namedview
   pagecolor="#ffffff"
   bordercolor="#666666"
   borderopacity="1"
   objecttolerance="10"
   gridtolerance="10"
   guidetolerance="10"
   inkscape:pageopacity="0"
   inkscape:pageshadow="2"
   inkscape:window-width="1440"
   inkscape:window-height="848"
   id="namedview29"
   showgrid="true"
   inkscape:zoom="26.409318"
   inkscape:cx="11.172491"
   inkscape:cy="7.3545474"
   inkscape:window-x="-8"
   inkscape:window-y="-8"
   inkscape:window-maximized="1"
   inkscape:current-layer="Layer_1"><inkscape:grid
     type="xygrid"
     id="grid3010"
     empspacing="5"
     visible="true"
     enabled="true"
     snapvisiblegridlinesonly="true" /></sodipodi:namedview>


<radialGradient
   id="path2995_1_"
   cx="25.706499"
   cy="-306.87061"
   r="4.7227998"
   gradientTransform="matrix(0.28038377,-2.4753835,-1.4703301,-0.10638504,-451.57769,42.625089)"
   gradientUnits="userSpaceOnUse">
	<stop
   offset="0"
   style="stop-color:#d63434;stop-opacity:1;"
   id="stop6" />
	
	<stop
   offset="1"
   style="stop-color:#d63434;stop-opacity:0;"
   id="stop10" />
</radialGradient>

<linearGradient
   id="path3008_1_"
   gradientUnits="userSpaceOnUse"
   x1="308.14651"
   y1="-377.9277"
   x2="311.9473"
   y2="-377.9277"
   gradientTransform="matrix(0.93586036,0,0,-1.0298652,-286.87581,-378.31196)">
	<stop
   offset="0"
   style="stop-color:#d63434;stop-opacity:1;"
   id="stop14" />
	
	<stop
   offset="1"
   style="stop-color:#d63434;stop-opacity:0;"
   id="stop18" />
</linearGradient>

<linearGradient
   id="path3006_1_"
   gradientUnits="userSpaceOnUse"
   x1="315.7207"
   y1="-379.52151"
   x2="319.02151"
   y2="-379.52151"
   gradientTransform="matrix(0.93586036,0,0,-1.0298652,-286.87581,-378.31196)">
	<stop
   offset="0"
   style="stop-color:#d63434;stop-opacity:1;"
   id="stop22" />
	
	<stop
   offset="1"
   style="stop-color:#d63434;stop-opacity:0;"
   id="stop26" />
</linearGradient>

<path
   style="fill:#e6e6e6;fill-opacity:1;stroke:none"
   d="M 8.4845063,0.46875 C 5.7133681,0.46841564 3.4644566,2.767744 3.4647882,5.5625 3.4649774,7.1572718 4.2106638,8.5729836 5.354929,9.5 l 0,1.0625 c 9.07e-5,0.764313 0.3266446,1.290705 0.8366196,1.625 l 0,1.5625 c 1.533e-4,1.292551 1.0113296,1.781096 2.2929577,1.78125 1.2816281,1.55e-4 2.3240967,-0.488699 2.3239437,-1.78125 l 0,-1.5625 c 0.507909,-0.334305 0.805724,-0.862385 0.805634,-1.625 l 0,-1.0625 c 1.14625,-0.926609 1.89033,-2.3395329 1.890141,-3.9375 -3.32e-4,-2.794756 -2.24858,-5.09341565 -5.0197187,-5.09375 z"
   id="rect3849"
   inkscape:connector-curvature="0" /><path
   style="font-size:48.64440536px;font-style:normal;font-variant:normal;font-weight:normal;font-stretch:normal;line-height:125%;letter-spacing:0px;word-spacing:0px;fill:#656565;fill-opacity:1;stroke:none;font-family:Ubuntu;-inkscape-font-specification:Ubuntu"
   d="M 8.4845063,0 C 5.4533383,-3.6585558e-4 2.9996367,2.474248 2.9999995,5.53125 3.0001954,7.184092 3.7491958,8.6724278 4.8901402,9.6875 l 0,0.875 c 9.35e-5,0.787957 0.3025169,1.44969 0.8056338,1.875 l 0,1.3125 c 9.22e-5,0.776495 0.3615843,1.424332 0.8985915,1.78125 0.5370073,0.356917 1.1915436,0.468666 1.8901408,0.46875 0.6985971,8.5e-5 1.3855415,-0.111526 1.9211267,-0.46875 0.535586,-0.357223 0.867697,-1.005538 0.867606,-1.78125 l 0,-1.3125 c 0.503785,-0.425161 0.836713,-1.086348 0.83662,-1.875 l 0,-0.875 C 13.253366,8.6719968 14.000196,7.2179955 13.999999,5.5625 13.999818,4.0343607 13.38327,2.6296692 12.388732,1.625 11.394188,0.6203364 10.000091,1.8285929e-4 8.4845063,0 z m 0,0.96875 c 1.2555541,1.514e-4 2.4019827,0.5147301 3.2225357,1.34375 0.820549,0.8290225 1.332244,1.9521334 1.332394,3.21875 1.73e-4,1.4482913 -0.667379,2.7555807 -1.704225,3.59375 l -0.185916,0.125 0,0.25 0,1.0625 c 7.2e-5,0.604653 -0.196527,0.932412 -0.557746,1.1875 -0.36122,0.255088 -0.9180661,0.40633 -1.5802822,0.40625 l -1.0225352,0 C 7.3265156,12.15617 6.76973,12.005175 6.40845,11.75 6.0472007,11.494858 5.8197892,11.167153 5.8197177,10.5625 l 0,-1.0625 0,-0.25 L 5.6647881,9.125 C 4.6290753,8.2859266 3.9607342,7.006846 3.9605628,5.5625 3.9602623,3.02999 5.9733979,0.96844694 8.4845063,0.96875 z"
   id="path5527"
   inkscape:connector-curvature="0" /></svg>

<svg width="16" xmlns="http://www.w3.org/2000/svg" viewBox="0 0 15.999999 16" height="16" enable-background="new 0 0 595.28 841.89">
<defs/>
<path fill="#e6e6e6" d="m8.4845,.4688c-2.7711-.0003-5.02,2.299-5.0197,5.0938c.0002,1.5948 .7459,3.0105 1.8901,3.9375v1.0625c.0001,.7643 .3266,1.2907 .8366,1.625v1.5625c.0002,1.2926 1.0113,1.7811 2.293,1.7812c1.2816,.0002 2.3241-.4887 2.3239-1.7812v-1.5625c.5079-.3343 .8057-.8624 .8056-1.625v-1.0625c1.1463-.9266 1.8903-2.3395 1.8901-3.9375c-.0003-2.7948-2.2486-5.0934-5.0197-5.0938z"/>
<path fill="#656565" word-spacing="0" d="m8.4845,0c-3.0312-.0004-5.4849,2.4742-5.4845,5.5312c.0002,1.6528 .7492,3.1412 1.8901,4.1562v.875c.0001,.788 .3025,1.4497 .8056,1.875v1.3125c.0001,.7765 .3616,1.4243 .8986,1.7812c.537,.3569 1.1915,.4687 1.8901,.4688c.6986,.0001 1.3855-.1115 1.9211-.4688c.5356-.3572 .8677-1.0055 .8676-1.7812v-1.3125c.5038-.4252 .8367-1.0863 .8366-1.875v-.875c1.1435-1.0155 1.8903-2.4695 1.8901-4.125c-.0002-1.5281-.6167-2.9328-1.6113-3.9375c-.9945-1.0047-2.3886-1.6248-3.9042-1.625zm0,.9688c1.2556,.0002 2.402,.5147 3.2225,1.3438c.8205,.829 1.3322,1.9521 1.3324,3.2188c.0002,1.4483-.6674,2.7556-1.7042,3.5938l-.1859,.125v.25v1.0625c.0001,.6047-.1965,.9324-.5577,1.1875c-.3612,.2551-.9181,.4063-1.5803,.4062h-1.0225c-.6622-.0001-1.219-.1511-1.5803-.4062c-.3612-.2551-.5887-.5828-.5887-1.1875v-1.0625v-.25l-.1549-.125c-1.0357-.8391-1.7041-2.1182-1.7042-3.5625c-.0003-2.5325 2.0128-4.5941 4.5239-4.5938z" letter-spacing="0"/>
</svg>
